resources/icons/scopy-light/icons/ic locked.svg

<?xml version="1.0" encoding="UTF-8"?>
<svg width="8px" height="12px" viewBox="0 0 8 12" version="1.1" xmlns="http://www.w3.org/2000/svg" xmlns:xlink="http://www.w3.org/1999/xlink">
    <title>ic locked</title>
    <g id="main" stroke="none" stroke-width="1" fill="none" fill-rule="evenodd">
        <g id="states" transform="translate(-1765.000000, -864.000000)" fill="#FFFFFF" fill-rule="nonzero">
            <g id="toggle-locked" transform="translate(1759.000000, 860.000000)">
                <path d="M10,4 C11.6568542,4 13,5.34314575 13,7 L13,10 L14,10 L14,16 L6,16 L6,10 L7,10 L7,7 C7,5.34314575 8.34314575,4 10,4 Z M10,6 C9.44771525,6 9,6.44771525 9,7 L9,10 L11,10 L11,7 C11,6.44771525 10.5522847,6 10,6 Z" id="ic-locked"></path>
            </g>
        </g>
    </g>
</svg>

<?xml version="1.0" encoding="UTF-8"?>
<svg width="8px" height="12px" version="1.1" viewBox="0 0 8 12" xmlns="http://www.w3.org/2000/svg">
 <g fill="#000" opacity=".6" transform="translate(-1765 -864)" fill-rule="evenodd">
  <g transform="translate(1759 860)" fill-rule="nonzero">
   <path d="m11 10v-3c0-0.55228-0.44772-1-1-1s-1 0.44772-1 1v3h2zm-4 0v-3c0-1.6569 1.3431-3 3-3s3 1.3431 3 3v3h1v6h-8v-6h1z"/>
  </g>
 </g>
</svg>
